X: 39209
T: Sydvest Brudemarch
R: jig
M: 6/8
K: Dmajor
A|d2 d f.e.d|c2 c c2 c/d/|e2 e/f/ gec|dAF DFA|
d2 d fed|c2 c c2 c/d/|e2 e/f/ gec|d2 d d2 d|
g2 g bag|f3 d2 c/d/|{f}e>ee .c.B.A|d2 f a2 f|
g2 g bag|f3 d2 c/d/|{f}e>ee cBA|d2 d d2||

